public/sheesh/icons10.svg

<svg fill="none" height="40" viewBox="0 0 40 40" width="40" xmlns="http://www.w3.org/2000/svg" xmlns:xlink="http://www.w3.org/1999/xlink"><linearGradient id="a"><stop offset="0" stop-color="#34c796"/><stop offset="1" stop-color="#0b7a55"/></linearGradient><linearGradient id="b" gradientUnits="userSpaceOnUse" x1="20" x2="20" xlink:href="#a" y1="0" y2="40"/><linearGradient id="c" gradientUnits="userSpaceOnUse" x1="20.0001" x2="20.0001" xlink:href="#a" y1="10.4453" y2="29.5568"/><circle cx="20" cy="20" fill="#151722" r="19" stroke="url(#b)" stroke-width="2"/><g fill="url(#c)"><path d="m20.0001 29.5568c-3.5555 0-6.4444-2.5511-6.4444-5.6889v-3.2889c0-.3645.3022-.6667.6666-.6667.3645 0 .6667.3022.6667.6667 0 2.3289 2.1956 4.0889 5.1111 4.0889 2.9156 0 5.1111-1.76 5.1111-4.0889 0-.3645.3022-.6667.6667-.6667.3644 0 .6667.3022.6667.6667v3.2889c0 3.1378-2.8889 5.6889-6.4445 5.6889zm-5.1111-5.5911c.0622 2.3555 2.3289 4.2577 5.1111 4.2577s5.0489-1.9022 5.1111-4.2577c-1.1555 1.2533-2.9866 2.0355-5.1111 2.0355-2.1244 0-3.9467-.7822-5.1111-2.0355z"/><path d="m20.0001 21.5564c-2.4533 0-4.6578-1.1022-5.7333-2.88-.4623-.7555-.7111-1.6355-.7111-2.5422 0-1.5289.6844-2.9689 1.92-4.0533 1.2089-1.0578 2.8177-1.6356 4.5244-1.6356s3.3067.5778 4.5245 1.6267c1.2355 1.0933 1.92 2.5333 1.92 4.0622 0 .9067-.2489 1.7778-.7111 2.5422-1.0756 1.7778-3.2801 2.88-5.7334 2.88zm0-9.7778c-1.3867 0-2.6844.4623-3.6533 1.3156-.9422.8178-1.4578 1.9022-1.4578 3.04 0 .6667.1778 1.2889.5155 1.8489.8445 1.3867 2.6045 2.24 4.5956 2.24s3.7511-.8622 4.5956-2.24c.3466-.56.5155-1.1822.5155-1.8489 0-1.1378-.5155-2.2222-1.4666-3.0578-.9689-.8355-2.2578-1.2978-3.6445-1.2978z"/><path d="m20.0001 26.0012c-3.6711 0-6.4444-2.3289-6.4444-5.4222v-4.4448c0-3.1378 2.8889-5.6889 6.4444-5.6889 1.7067 0 3.3067.5778 4.5245 1.6267 1.2355 1.0933 1.92 2.5333 1.92 4.0622v4.4448c0 3.0933-2.7734 5.4222-6.4445 5.4222zm0-14.2226c-2.8178 0-5.1111 1.9556-5.1111 4.3556v4.4448c0 2.3289 2.1956 4.0889 5.1111 4.0889 2.9156 0 5.1111-1.76 5.1111-4.0889v-4.4448c0-1.1378-.5155-2.2222-1.4666-3.0578-.9689-.8355-2.2578-1.2978-3.6445-1.2978z"/></g></svg>

<svg width="40" height="40" viewBox="0 0 40 40" fill="none" xmlns="http://www.w3.org/2000/svg">
<circle cx="20" cy="20" r="19" fill="#151722" stroke="url(#paint0_linear_342_13807)" stroke-width="2"/>
<path d="M20.0001 29.5568C16.4446 29.5568 13.5557 27.0057 13.5557 23.8679V20.579C13.5557 20.2145 13.8579 19.9123 14.2223 19.9123C14.5868 19.9123 14.889 20.2145 14.889 20.579C14.889 22.9079 17.0846 24.6679 20.0001 24.6679C22.9157 24.6679 25.1112 22.9079 25.1112 20.579C25.1112 20.2145 25.4134 19.9123 25.7779 19.9123C26.1423 19.9123 26.4446 20.2145 26.4446 20.579V23.8679C26.4446 27.0057 23.5557 29.5568 20.0001 29.5568ZM14.889 23.9657C14.9512 26.3212 17.2179 28.2234 20.0001 28.2234C22.7823 28.2234 25.049 26.3212 25.1112 23.9657C23.9557 25.219 22.1246 26.0012 20.0001 26.0012C17.8757 26.0012 16.0534 25.219 14.889 23.9657Z" fill="url(#paint1_linear_342_13807)"/>
<path d="M20.0001 21.5564C17.5468 21.5564 15.3423 20.4542 14.2668 18.6764C13.8045 17.9209 13.5557 17.0409 13.5557 16.1342C13.5557 14.6053 14.2401 13.1653 15.4757 12.0809C16.6846 11.0231 18.2934 10.4453 20.0001 10.4453C21.7068 10.4453 23.3068 11.0231 24.5246 12.072C25.7601 13.1653 26.4446 14.6053 26.4446 16.1342C26.4446 17.0409 26.1957 17.912 25.7335 18.6764C24.6579 20.4542 22.4534 21.5564 20.0001 21.5564ZM20.0001 11.7786C18.6134 11.7786 17.3157 12.2409 16.3468 13.0942C15.4046 13.912 14.889 14.9964 14.889 16.1342C14.889 16.8009 15.0668 17.4231 15.4045 17.9831C16.249 19.3698 18.009 20.2231 20.0001 20.2231C21.9912 20.2231 23.7512 19.3609 24.5957 17.9831C24.9423 17.4231 25.1112 16.8009 25.1112 16.1342C25.1112 14.9964 24.5957 13.912 23.6446 13.0764C22.6757 12.2409 21.3868 11.7786 20.0001 11.7786Z" fill="url(#paint2_linear_342_13807)"/>
<path d="M20.0001 26.0012C16.329 26.0012 13.5557 23.6723 13.5557 20.579V16.1342C13.5557 12.9964 16.4446 10.4453 20.0001 10.4453C21.7068 10.4453 23.3068 11.0231 24.5246 12.072C25.7601 13.1653 26.4446 14.6053 26.4446 16.1342V20.579C26.4446 23.6723 23.6712 26.0012 20.0001 26.0012ZM20.0001 11.7786C17.1823 11.7786 14.889 13.7342 14.889 16.1342V20.579C14.889 22.9079 17.0846 24.6679 20.0001 24.6679C22.9157 24.6679 25.1112 22.9079 25.1112 20.579V16.1342C25.1112 14.9964 24.5957 13.912 23.6446 13.0764C22.6757 12.2409 21.3868 11.7786 20.0001 11.7786Z" fill="url(#paint3_linear_342_13807)"/>
<defs>
<linearGradient id="paint0_linear_342_13807" x1="20" y1="0" x2="20" y2="40" gradientUnits="userSpaceOnUse">
<stop stop-color="#34C796"/>
<stop offset="1" stop-color="#0B7A55"/>
</linearGradient>
<linearGradient id="paint1_linear_342_13807" x1="20.0001" y1="10.4453" x2="20.0001" y2="29.5568" gradientUnits="userSpaceOnUse">
<stop stop-color="#34C796"/>
<stop offset="1" stop-color="#0B7A55"/>
</linearGradient>
<linearGradient id="paint2_linear_342_13807" x1="20.0001" y1="10.4453" x2="20.0001" y2="29.5568" gradientUnits="userSpaceOnUse">
<stop stop-color="#34C796"/>
<stop offset="1" stop-color="#0B7A55"/>
</linearGradient>
<linearGradient id="paint3_linear_342_13807" x1="20.0001" y1="10.4453" x2="20.0001" y2="29.5568" gradientUnits="userSpaceOnUse">
<stop stop-color="#34C796"/>
<stop offset="1" stop-color="#0B7A55"/>
</linearGradient>
</defs>
</svg>
